source/asset/images/logo.svg

<svg width="91" height="32" viewBox="0 0 91 32" fill="none" xmlns="http://www.w3.org/2000/svg">
<path fill-rule="evenodd" clip-rule="evenodd" d="M75.3369 9H78.1435C82.2469 9 85.2635 11.9989 85.2635 15.9996C85.2635 20.0003 82.2421 22.9976 78.1435 22.9976H75.3369C71.2286 22.9976 68.2023 19.9971 68.2023 15.9996C68.2023 12.0022 71.2286 9 75.3369 9ZM75.3369 20.8658H78.1435C80.9355 20.8658 83.0068 18.7842 83.0068 15.9948C83.0068 13.2053 80.9307 11.1238 78.1435 11.1238H75.3369C72.54 11.1238 70.4557 13.2232 70.4557 15.9948C70.4557 18.7664 72.5448 20.8658 75.3369 20.8658ZM19.0349 17.7664C18.4297 19.6807 16.8286 20.8432 14.7623 20.8432H11.9524C9.24497 20.8432 7.25834 18.8185 7.25834 16.0047C7.25834 13.1909 9.24497 11.1564 11.9524 11.1564H14.7623C16.7636 11.1564 18.3418 12.2411 18.9926 14.0401H21.2363C20.5253 11.0022 17.9627 9.01483 14.7623 9.01483H11.9524C7.95147 9.01483 5 11.9699 5 16.0047C5 20.0395 7.95147 22.9865 11.9524 22.9865H14.7623C18.0164 22.9865 20.5823 20.9439 21.2835 17.7696L19.0349 17.7664ZM25.8431 20.6555V16.8789H33.7831V14.8493H25.8431V11.3243H34.2842V9.25415H23.6222V22.7452H34.4957V20.6555H25.8431ZM37.1705 9.25415H44.7509C48.7274 9.25415 51.6041 12.0826 51.6041 15.9956C51.6041 19.9087 48.7225 22.7452 44.7509 22.7452H37.1705V9.25415ZM39.3914 20.6799H44.6842C47.416 20.6799 49.3359 18.7218 49.3359 15.9956C49.3359 13.2695 47.416 11.3211 44.6842 11.3211H39.3914V20.6799ZM63.5906 17.4407C64.4026 17.1576 65.1049 16.6271 65.5983 15.924C66.0917 15.221 66.3512 14.381 66.3403 13.5228C66.3403 11.0353 64.4057 9.25415 61.8008 9.25415H53.7242V22.7452H55.9451V17.7524H61.3143L64.2186 22.7452H66.7113L63.5906 17.4407ZM61.6707 15.6822H55.9451V11.3243H61.6707C63.135 11.3243 64.082 12.2514 64.082 13.5033C64.082 14.7551 63.1415 15.6822 61.6707 15.6822Z" fill="#D0BC7A"/>
</svg>

<svg width="91" height="32" viewBox="0 0 91 32" fill="none" xmlns="http://www.w3.org/2000/svg"><path fill-rule="evenodd" clip-rule="evenodd" d="M75.337 9h2.806c4.104 0 7.12 2.999 7.12 7 0 4-3.02 6.998-7.12 6.998h-2.806c-4.108 0-7.135-3-7.135-6.998s3.027-7 7.135-7zm0 11.866h2.806c2.793 0 4.864-2.082 4.864-4.871 0-2.79-2.076-4.871-4.864-4.871h-2.806c-2.797 0-4.881 2.1-4.881 4.87 0 2.772 2.089 4.872 4.88 4.872zm-56.302-3.1c-.605 1.915-2.206 3.077-4.273 3.077h-2.81c-2.707 0-4.694-2.024-4.694-4.838s1.987-4.849 4.694-4.849h2.81c2.002 0 3.58 1.085 4.23 2.884h2.244c-.71-3.038-3.273-5.025-6.474-5.025h-2.81c-4 0-6.952 2.955-6.952 6.99s2.951 6.982 6.952 6.982h2.81c3.254 0 5.82-2.043 6.521-5.217l-2.248-.004zm6.808 2.89v-3.777h7.94v-2.03h-7.94v-3.525h8.441v-2.07H23.622v13.491h10.874v-2.09h-8.653zM37.17 9.254h7.58c3.977 0 6.854 2.829 6.854 6.742s-2.882 6.75-6.853 6.75h-7.58V9.253zm2.221 11.426h5.293c2.732 0 4.652-1.958 4.652-4.684s-1.92-4.675-4.652-4.675h-5.293v9.359zm24.2-3.24a4.09 4.09 0 002.75-3.918c0-2.487-1.935-4.268-4.54-4.268h-8.077v13.491h2.221v-4.993h5.37l2.904 4.993h2.492l-3.12-5.304zm-1.92-1.758h-5.726v-4.358h5.726c1.464 0 2.411.927 2.411 2.18 0 1.251-.94 2.178-2.411 2.178z" fill="#D0BC7A"/></svg>
